Obsidian/status/22s/whatsapp-warning-msg.svg

<svg height="22" width="22" xmlns="http://www.w3.org/2000/svg"><g fill="#5294e2"><path d="m11 3c-.1926 0-.383066.010178-.572266.023437-.0237.00175-.04651.00194-.07031.00391-2.8577999.2255199-5.2791531 1.9428-6.5019532 4.375-.079116.1574498-.1596856.3152656-.2285157.4785156-.37451.8457-.5782944 1.7420409-.6152343 2.6816406-.00162.03035-.00262.06135-.00391.0918-.00247.08976-.00646.179011-.00586.269531-.0002298.0253838-.0019508.0507258-.0019508.0761658 0 .93022.1657181 1.819336.4550781 2.648438.11645.371679.2502294.746683.4121094 1.126953.013811.03244.020209.05115.033203.08203.5607141-.54953 1.3145076-.857359 2.0996095-.857421 1.6568542 0 3 1.343146 3 3-.00091.579832-.1698321 1.146976-.4863281 1.632812.0926.02774.1584022.04387.2675781.07813.52453.1646 1.1215748.252873 1.796875.277343.02825.0014.05761.0028.08594.0039.0924.003.181844.0078.277344.0078.0078 0 .01373.000057.02149 0 .01231.000055.02478 0 .03711 0 .22339 0 .443449-.01152.662109-.0293 1.9778-.14065 3.566394-.871468 4.996094-2.298828 1.178-1.176 1.908766-2.627283 2.197266-4.146484.02658-.13883.04706-.280545.06641-.421875.0117-.08676.02438-.172726.0332-.259766.01939-.18667.03067-.376056.03711-.566406.0014-.04797.0034-.09459.0039-.142578.00069-.044672.003902-.089899.003902-.134748 0-4.3580005-3.450397-7.8778406-7.779297-7.9941406-.0336-.0015-.06786-.00142-.101562-.00195-.04-.000586-.07904-.0039094-.119141-.0039094zm-2.5 4c.8284269 0 1.5.6715729 1.5 1.5 0 .5-.0000002 1.5-1 1.5 0 1 2.031563 2.945724 3 3 0-1 1-1 1.5-1 .828427 0 1.5.671573 1.5 1.5s-.671573 1.5-1.5 1.5h-.560547c-.296314-.006492-.641709-.115949-1.126953-.292969-1.622947-.59206-2.7496568-1.542498-3.9042969-3.292969-.6725949-1.019683-.9046031-1.6333368-.9082031-2.3964839v-.5175781c0-.8284271.6715729-1.5 1.5-1.5z"/><circle cx="6" cy="17" r="2"/></g></svg>

<svg xmlns="http://www.w3.org/2000/svg" width="22" height="22" version="1.1">
 <defs>
  <style id="current-color-scheme" type="text/css">
   .ColorScheme-Text { color:#d3dae3; } .ColorScheme-Highlight { color:#5294e2; }
  </style>
 </defs>
 <path style="fill:currentColor" class="ColorScheme-Highlight" d="m 11,3 c -0.1926,0 -0.383066,0.010178 -0.572266,0.023437 -0.0237,0.00175 -0.04651,0.00194 -0.07031,0.00391 -2.8577999,0.2255199 -5.2791531,1.9428 -6.5019532,4.375 -0.079116,0.1574498 -0.1596856,0.3152656 -0.2285157,0.4785156 -0.37451,0.8457 -0.5782944,1.7420409 -0.6152343,2.6816406 -0.00162,0.03035 -0.00262,0.06135 -0.00391,0.0918 -0.00247,0.08976 -0.00646,0.179011 -0.00586,0.269531 C 3.001721,10.949218 3,10.97456 3,11 c 0,0.93022 0.1657181,1.819336 0.4550781,2.648438 0.11645,0.371679 0.2502294,0.746683 0.4121094,1.126953 0.013811,0.03244 0.020209,0.05115 0.033203,0.08203 C 4.4611046,14.307891 5.2148981,14.000062 6,14 c 1.6568542,0 3,1.343146 3,3 -9.1e-4,0.579832 -0.1698321,1.146976 -0.4863281,1.632812 0.0926,0.02774 0.1584022,0.04387 0.2675781,0.07813 0.52453,0.1646 1.1215748,0.252873 1.796875,0.277343 0.02825,0.0014 0.05761,0.0028 0.08594,0.0039 0.0924,0.003 0.181844,0.0078 0.277344,0.0078 0.0078,0 0.01373,5.7e-5 0.02149,0 0.01231,5.5e-5 0.02478,0 0.03711,0 0.22339,0 0.443449,-0.01152 0.662109,-0.0293 1.9778,-0.14065 3.566394,-0.871468 4.996094,-2.298828 1.178,-1.176 1.908766,-2.627283 2.197266,-4.146484 0.02658,-0.13883 0.04706,-0.280545 0.06641,-0.421875 0.0117,-0.08676 0.02438,-0.172726 0.0332,-0.259766 0.01939,-0.18667 0.03067,-0.376056 0.03711,-0.566406 0.0014,-0.04797 0.0034,-0.09459 0.0039,-0.142578 C 18.996788,11.090076 19,11.044849 19,11 19,6.6419995 15.549603,3.1221594 11.220703,3.0058594 c -0.0336,-0.0015 -0.06786,-0.00142 -0.101562,-0.00195 C 11.079141,3.0033234 11.040101,3 11,3 Z M 8.5,7 c 0.8284269,0 1.5,0.6715729 1.5,1.5 0,0.5 -2e-7,1.5 -1,1.5 0,1 2.031563,2.945724 3,3 0,-1 1,-1 1.5,-1 0.828427,0 1.5,0.671573 1.5,1.5 0,0.828427 -0.671573,1.5 -1.5,1.5 l -0.560547,0 C 12.643139,14.993508 12.297744,14.884051 11.8125,14.707031 10.189553,14.114971 9.0628432,13.164533 7.9082031,11.414062 7.2356082,10.394379 7.0036,9.7807252 7,9.0175781 L 7,8.5 C 7,7.6715729 7.6715729,7 8.5,7 Z"/>
 <circle style="fill:currentColor" class="ColorScheme-Highlight" cx="6" cy="17" r="2"/>
</svg>
